Obsidian-SemiLight/actions/22s/kdenlive-composite.svg

<svg viewBox="0 0 22 22" xmlns="http://www.w3.org/2000/svg"><g fill="#4d4d4d"><path d="m3 3v.5 15.5h16v-16zm1 1h14v14h-14z"/><path d="m5 5h4v4h-4zm4 4h4v4h-4zm-4 4h4v4h-4zm8 0h4v4h-4zm0-8h4v4h-4z" fill-opacity=".6"/></g></svg>

<svg xmlns="http://www.w3.org/2000/svg" viewBox="0 0 22 22">
  <defs id="defs3051">
    <style type="text/css" id="current-color-scheme">
      .ColorScheme-Text {
        color:#4d4d4d;
      }
      </style>
  </defs>
 <path 
    style="fill:currentColor;fill-opacity:1;stroke:none" 
    d="M 3,3 3,3.5 3,19 19,19 19,3 3,3 Z M 4,4 18,4 18,18 4,18 4,4 Z"
    class="ColorScheme-Text"
    />  
 <path 
    style="fill:currentColor;fill-opacity:0.6;stroke:none" 
    d="M5 5h4v4H5zm4 4h4v4H9zm-4 4h4v4H5zm8 0h4v4h-4zm0-8h4v4h-4z"
    class="ColorScheme-Text"
    />  
</svg>
